hero/solid/user.svg

<svg width="24" height="24" viewBox="0 0 24 24" fill="none" xmlns="http://www.w3.org/2000/svg">
<path fill-rule="evenodd" clip-rule="evenodd" d="M7.49996 6C7.49996 3.51472 9.51468 1.5 12 1.5C14.4852 1.5 16.5 3.51472 16.5 6C16.5 8.48528 14.4852 10.5 12 10.5C9.51468 10.5 7.49996 8.48528 7.49996 6Z" fill="#0F172A"/>
<path fill-rule="evenodd" clip-rule="evenodd" d="M3.75121 20.1053C3.82855 15.6156 7.49195 12 12 12C16.5081 12 20.1716 15.6157 20.2487 20.1056C20.2538 20.4034 20.0823 20.676 19.8116 20.8002C17.4327 21.8918 14.7865 22.5 12.0003 22.5C9.21382 22.5 6.5674 21.8917 4.18829 20.7999C3.91762 20.6757 3.74608 20.4031 3.75121 20.1053Z" fill="#0F172A"/>
</svg>

<svg viewBox="0 0 24 24" xmlns="http://www.w3.org/2000/svg"><path fill-rule="evenodd" d="M7.5 6v0c0-2.49 2.01-4.5 4.5-4.5 2.48 0 4.5 2.01 4.5 4.5v0c0 2.48-2.02 4.5-4.5 4.5 -2.49 0-4.5-2.02-4.5-4.5ZM3.751 20.105h0c.07-4.56 3.82-8.2 8.37-8.13 4.45.06 8.05 3.66 8.12 8.12h-.001c0 .29-.17.57-.44.69h-.001c-2.46 1.12-5.12 1.7-7.82 1.7 -2.79 0-5.44-.61-7.812-1.7v0c-.28-.13-.45-.4-.44-.7Z"/></svg>
